X:1
T:Samuel Allen
M:4/4
L:1/4
K:D
 A| D D F A| F- D F D| F E D C| D z z| A| B B G A| d d A F| G A B B|\
 A z z| A| B B G A| d2 A F| G A B B| A z z| A| D D F A| F D F D| F E/2E/2 D/2D/2 C|\
 D z z||

